build/img/sprite/proposal-like.svg

<svg width="20" height="20" viewBox="0 0 20 20" xmlns="http://www.w3.org/2000/svg">
<g clip-path="url(#clip0)">
<path d="M1.45833 20H3.54167C4.34583 20 5 19.3458 5 18.5417V18.2367C6.26 18.8783 9.12167 20 13.7758 20H15.1092C17.0408 20 18.6808 18.6183 19.0083 16.715L19.9417 11.2983C20.14 10.1425 19.8208 8.9675 19.0675 8.0725C18.315 7.17917 17.2117 6.66667 16.0425 6.66667H12.2625C12.4983 6.03333 12.7342 5.11 12.7342 3.95833C12.7342 0.8275 10.9625 0 10.0258 0C8.29583 0 8.15083 1.61333 8.15083 3.125C8.15083 4.97 6.08167 6.50333 4.98917 7.185C4.93333 6.43167 4.30917 5.83333 3.54167 5.83333H1.45833C0.654167 5.83333 0 6.4875 0 7.29167V18.5417C0 19.3458 0.654167 20 1.45833 20ZM9.40084 3.125C9.40084 1.25 9.71833 1.25 10.0258 1.25C10.6125 1.25 11.4842 1.97167 11.4842 3.95833C11.4842 5.805 10.7608 6.93667 10.7558 6.945C10.6283 7.13667 10.6158 7.38333 10.725 7.58667C10.8333 7.79 11.0458 7.91667 11.2758 7.91667H16.0425C16.8425 7.91667 17.5967 8.26667 18.1117 8.8775C18.6275 9.48917 18.8458 10.2942 18.71 11.085L17.7767 16.5017C17.5525 17.8033 16.4308 18.7492 15.1092 18.7492H13.7758C8.10667 18.75 5.26667 16.9767 5 16.8008V8.62583C5.69417 8.2575 9.40084 6.14917 9.40084 3.125ZM1.25 7.29167C1.25 7.17667 1.34333 7.08333 1.45833 7.08333H3.54167C3.65667 7.08333 3.75 7.17667 3.75 7.29167V18.5417C3.75 18.655 3.655 18.75 3.54167 18.75H1.45833C1.34333 18.75 1.25 18.6567 1.25 18.5417V7.29167Z" />
</g>
<defs>
<clipPath id="clip0">
<rect width="20" height="20" fill="white"/>
</clipPath>
</defs>
</svg>

<svg width="20" height="20" xmlns="http://www.w3.org/2000/svg"><g clip-path="url(#clip0)"><path d="M1.458 20h2.084A1.46 1.46 0 005 18.542v-.305C6.26 18.878 9.122 20 13.776 20h1.333a3.948 3.948 0 003.9-3.285l.933-5.417a3.959 3.959 0 00-3.9-4.631h-3.78a7.775 7.775 0 00.472-2.709C12.734.828 10.963 0 10.026 0 8.296 0 8.15 1.613 8.15 3.125c0 1.845-2.07 3.378-3.162 4.06a1.456 1.456 0 00-1.447-1.352H1.458A1.46 1.46 0 000 7.292v11.25A1.46 1.46 0 001.458 20zM9.401 3.125c0-1.875.317-1.875.625-1.875.587 0 1.458.722 1.458 2.708 0 1.847-.723 2.979-.728 2.987a.625.625 0 00.52.972h4.767a2.707 2.707 0 012.668 3.168l-.934 5.417a2.701 2.701 0 01-2.668 2.247h-1.333c-5.67.001-8.51-1.772-8.776-1.948V8.626c.694-.368 4.4-2.477 4.4-5.501zM1.25 7.292c0-.115.093-.209.208-.209h2.084c.115 0 .208.094.208.209v11.25a.21.21 0 01-.208.208H1.458a.208.208 0 01-.208-.208V7.292z"/></g><defs><clipPath id="clip0"><path fill="#fff" d="M0 0h20v20H0z"/></clipPath></defs></svg>
